X:59
T:Polska Fr{\aa}n Gotland
R:sl\"angpolska
A:Gotland
Z:id:hn-sp-59
M:3/4
L:1/16
K:D
a3g f2d2 f2a2|a2gf g2ab e2fg|g2fe d2B2 c2d2|e2dc d2cB A2Bc|d2AG F2ED B4|
A2Bc d2A2 F2D2|a2a2 b2b2 c'2c'2|a2a2 d'2a2 f2d2|ABcd efge b2g2|egec d8:|
|:e3d d2c2 c2e2|efed cdcB c2A2|ABA^G A2B2 c2d2|e2f^g a2ed c2BA|A3B =c4 c4|
=c2BA B2dB G4|B2G2 G2B2 B2d2|d2cd edcB A4|a2a2 b2b2 c'2c'2|a2a2 d'2a2 f2d2|
ABcd efge b2g2|egec d8:|
<end>
<start>
